assets/icons/insert/text.svg

<?xml version="1.0" encoding="UTF-8" standalone="no"?>
<svg viewBox="0 0 24 24" height="24" width="24" version="1.1" id="svg4" sodipodi:docname="text.svg" inkscape:version="1.1 (ce6663b3b7, 2021-05-25)"
   xmlns:inkscape="http://www.inkscape.org/namespaces/inkscape"
   xmlns:sodipodi="http://sodipodi.sourceforge.net/DTD/sodipodi-0.dtd"
   xmlns="http://www.w3.org/2000/svg"
   xmlns:svg="http://www.w3.org/2000/svg">
   <defs id="defs8" />
   <sodipodi:namedview id="namedview6" pagecolor="#ffffff" bordercolor="#666666" borderopacity="1.0" inkscape:pageshadow="2" inkscape:pageopacity="0.0" inkscape:pagecheckerboard="0" showgrid="true" inkscape:snap-page="true" inkscape:zoom="28" inkscape:cx="11.017857" inkscape:cy="12.410714" inkscape:window-width="1920" inkscape:window-height="1016" inkscape:window-x="0" inkscape:window-y="27" inkscape:window-maximized="1" inkscape:current-layer="svg4">
      <inkscape:grid type="xygrid" id="grid821" />
      <inkscape:grid type="xygrid" id="grid823" dotted="true" spacingx="0.5" spacingy="0.5" empspacing="10" />
   </sodipodi:namedview>
   <path id="path858" style="color:#000000;fill:#808080;stroke-linecap:square;-inkscape-stroke:none;fill-opacity:1" d="M 7.6640625 6 L 7.5371094 6.3105469 L 3.1640625 17 L 2 17 L 2 18 L 5 18 L 5 17 L 4.2460938 17 L 5.4726562 14 L 10.056641 14 L 11.230469 17 L 10 17 L 10 18 L 15 18 L 15 17 L 13.378906 17 L 9.0742188 6 L 8.0996094 6 L 7.6640625 6 z M 7.8144531 8.2734375 L 9.6640625 13 L 5.8808594 13 L 7.8144531 8.2734375 z " />
   <path id="path2037" style="color:#000000;fill:#808080;stroke-linecap:square;-inkscape-stroke:none;fill-opacity:1" d="M 14 3 L 14 4 L 14.5 4 C 15.499999 4 16.141219 4.044391 16.449219 4.2753906 C 16.603219 4.3908905 16.730479 4.5588731 16.833984 4.9082031 C 16.93749 5.2575332 17 5.7777785 17 6.5 L 17 17.5 C 17 18.222221 16.93749 18.742467 16.833984 19.091797 C 16.730479 19.441127 16.603219 19.609109 16.449219 19.724609 C 16.141219 19.955609 15.499999 20 14.5 20 L 14 20 L 14 21 L 14.5 21 C 15.499999 21 16.358782 21.04439 17.050781 20.525391 C 17.225527 20.394332 17.375765 20.228617 17.5 20.033203 C 17.624235 20.228617 17.774473 20.394332 17.949219 20.525391 C 18.641218 21.04439 19.500001 21 20.5 21 L 21 21 L 21 20 L 20.5 20 C 19.500001 20 18.858781 19.95561 18.550781 19.724609 C 18.396781 19.609109 18.269521 19.441127 18.166016 19.091797 C 18.06251 18.742467 18 18.222221 18 17.5 L 18 6.5 C 18 5.7777785 18.06251 5.2575332 18.166016 4.9082031 C 18.269521 4.5588731 18.396781 4.3908905 18.550781 4.2753906 C 18.858781 4.0443909 19.500001 4 20.5 4 L 21 4 L 21 3 L 20.5 3 C 19.500001 3 18.641218 2.95561 17.949219 3.4746094 C 17.774473 3.6056683 17.624235 3.7713834 17.5 3.9667969 C 17.375765 3.7713834 17.225527 3.6056683 17.050781 3.4746094 C 16.358782 2.9556099 15.499999 3 14.5 3 L 14 3 z " />
</svg>

<svg height="24" width="24" xmlns="http://www.w3.org/2000/svg"><path style="color:#000;fill:gray;stroke-linecap:square;-inkscape-stroke:none;fill-opacity:1" d="m7.664 6-.127.31L3.164 17H2v1h3v-1h-.754l1.227-3h4.584l1.173 3H10v1h5v-1h-1.621L9.074 6h-1.41zm.15 2.273L9.664 13H5.881l1.933-4.727z"/><path style="color:#000;fill:gray;stroke-linecap:square;-inkscape-stroke:none;fill-opacity:1" d="M14 3v1h.5c1 0 1.641.044 1.95.275.153.116.28.284.384.633.103.35.166.87.166 1.592v11c0 .722-.063 1.242-.166 1.592-.104.35-.23.517-.385.633-.308.23-.949.275-1.949.275H14v1h.5c1 0 1.859.044 2.55-.475.176-.13.326-.296.45-.492.124.196.274.361.45.492.691.52 1.55.475 2.55.475h.5v-1h-.5c-1 0-1.641-.044-1.95-.275-.153-.116-.28-.284-.384-.633-.103-.35-.166-.87-.166-1.592v-11c0-.722.063-1.242.166-1.592.104-.35.23-.517.385-.633C18.859 4.045 19.5 4 20.5 4h.5V3h-.5c-1 0-1.859-.044-2.55.475a1.85 1.85 0 0 0-.45.492 1.85 1.85 0 0 0-.45-.492C16.36 2.955 15.5 3 14.5 3H14z"/></svg>
